X: 8344
T: Cottonwood
R: reel
M: 4/4
K: Dmajor
|:fg|a2ab agfe|f2fg fedf|e2ef eABc|dfeg fa gb|
a2ab agfe|f2fg fedf|e2ef eABc|dfec d2:|
=c2|:Bdgd Bdgd|Adfd adfd|cdec Acec|d2fa gfed|
Bdgd Bdgd|Adfd adfd|cdef gfge|1 d=cBA G3c:|2 d=cBA G4||
K:G
|:[db][db][db] [^db][^db][^db] [^db][^db]|[ec']3 [ec']3 z2|eaag fdef|gfge dBG2|
[db][db][db] [^db][^db][^db] [^db][^db]|[ec']3 [ec']3 z2|eaag fdef|g2gf g2z2:|

